azure-patterns/svg-four-servers.svg

<svg xmlns="http://www.w3.org/2000/svg" viewBox="0 0 49 49">
                                
                            
	<path d="M10.7591 0.0800781H0.653809V48.0464H10.7591V0.0800781Z" fill="#0078D4"></path>
	<path d="M23.3899 0.0800781H13.2847V48.0464H23.3899V0.0800781Z" fill="#0078D4"></path>
	<path d="M36.0227 0.0800781H25.9175V48.0464H36.0227V0.0800781Z" fill="#0078D4"></path>
	<path d="M48.6536 0.0800781H38.5483V48.0464H48.6536V0.0800781Z" fill="#0078D4"></path>
	<path d="M6.90204 41.7676H4.35889V44.3125H6.90204V41.7676Z" fill="#50E6FF"></path>
	<path d="M6.90204 36.7109H4.35889V39.2559H6.90204V36.7109Z" fill="#50E6FF"></path>
	<path d="M19.5935 41.7676H17.0503V44.3125H19.5935V41.7676Z" fill="#50E6FF"></path>
	<path d="M19.5935 36.7109H17.0503V39.2559H19.5935V36.7109Z" fill="#50E6FF"></path>
	<path d="M32.2497 41.7676H29.7065V44.3125H32.2497V41.7676Z" fill="#50E6FF"></path>
	<path d="M32.2497 36.7109H29.7065V39.2559H32.2497V36.7109Z" fill="#50E6FF"></path>
	<path d="M44.8298 41.7676H42.2866V44.3125H44.8298V41.7676Z" fill="#50E6FF"></path>
	<path d="M44.8298 36.7109H42.2866V39.2559H44.8298V36.7109Z" fill="#50E6FF"></path>
</svg>

<svg xmlns="http://www.w3.org/2000/svg" viewBox="0 0 49 49"><path d="M10.76.08H.653v47.966h10.105V.08zM23.39.08H13.285v47.966H23.39V.08zM36.023.08H25.917v47.966h10.106V.08zM48.654.08H38.548v47.966h10.106V.08z" fill="#0078D4"/><path d="M6.902 41.768H4.359v2.544h2.543v-2.544zM6.902 36.71H4.359v2.546h2.543V36.71zM19.593 41.768H17.05v2.544h2.543v-2.544zM19.593 36.71H17.05v2.546h2.543V36.71zM32.25 41.768h-2.544v2.544h2.544v-2.544zM32.25 36.71h-2.544v2.546h2.544V36.71zM44.83 41.768h-2.543v2.544h2.543v-2.544zM44.83 36.71h-2.543v2.546h2.543V36.71z" fill="#50E6FF"/></svg>
